X:4
T:Ap Siencyn
C:Traditional
O:Cymru
B:Blodau'r Grug: Cant o Alawon Dawnsio Poblogaidd Cymru
Z:Bert Van Vreckem <http://flanders.blackmill.net/music/>
R:Jig
M:6/8
L:1/8
K:G
P:A
d/c/|"G"B2B Bgf|"C"e2e efg|"G"ded dcB|"D7"cAA A2 d/c/|\
"G"BcB Bgf|"C"efe efg|"G"ded "D7"cBA|"G"BGG G2!fine!:|g/a/|
P:B
"G"b2g "D"a2f|"C"gfg "G"dcB|"C"cde "G"dgB|"D"BAA A2 g/a/|\
"G"b2g "D"a2f|"A"gfe "D"agf|"G"bag "A7"fge|"D"dgf "D7"ed!D.C.!c|]

